22x22/apps/io.poez.Poezio.svg

<svg xmlns="http://www.w3.org/2000/svg" width="22" height="22" x="0" y="0" version="1.1" xml:space="preserve">
 <path style="opacity:0.2" d="m 15.99802,1.500001 c -0.0053,0 -0.428234,0.1862234 -0.939523,0.4110434 -0.96182,0.4276193 -1.275064,0.6085947 -1.967575,1.1347825 -0.807928,0.6140605 -1.159653,1.1951871 -2.363241,3.8923976 -0.346255,0.7730285 -0.631964,1.398008 -0.642896,1.387102 -0.03847,-0.03838 0.115394,-0.904524 0.263819,-1.4802065 0.08241,-0.334503 0.269306,-0.9156525 0.406588,-1.304893 0.137493,-0.3837875 0.230835,-0.696255 0.203295,-0.696255 -0.115419,0 -0.857301,0.350867 -1.275035,0.597498 -0.9178805,0.553661 -2.0609265,1.5735285 -2.6434845,2.362915 -1.368412,1.863993 -1.983989,3.442988 -2.352319,6.030724 L 4.533751,14.904232 4.528286,14.399879 c -0.01093,-0.981281 0.099042,-1.853117 0.3792825,-3.092143 0.153891,-0.65244 0.2747415,-1.206072 0.2747415,-1.228092 0,-0.02202 -0.170265,0.142604 -0.3847035,0.367214 -0.6592931,0.691029 -1.3635,1.754721 -1.6164113,2.681265 -0.1154183,0.433072 -0.192354,1.42003 -0.1318067,1.78725 0.027541,0.169873 0.043945,0.317919 0.033014,0.334487 -0.010933,0.01091 -0.048671,-0.04383 -0.2025623,-0.120589 -0.1538911,-0.08221 -0.2802432,-0.126057 -0.2802432,-0.104246 0,0.02747 0.076942,0.301599 0.16482,0.619534 0.087878,0.317936 0.16482,0.575662 0.16482,0.581114 0,0 -0.1255497,-0.02745 -0.4057913,-0.07127 -0.2747755,-0.03838 -0.5110798,-0.06043 -0.522012,-0.04932 -0.016399,0.01636 0.1099588,0.191895 0.2747821,0.400147 C 4,18 3.161096,17.651538 4.5945175,17.93523 c 0.01093,0.01656 0.24178,0.08221 0.51109,0.15897 0.2693095,0.0713 0.6649395,0.191865 0.8737015,0.268621 L 6.3640535,18.5 6.0617195,18.231337 5.7596315,17.962674 7.133501,17.957224 8.5073705,17.951774 7.737923,17.644731 C 7.151544,17.459559 6.714182,17.406914 6.251013,17.054436 6.0566375,16.881183 6.248063,16.89011 6.9905665,16.89011 c 1.6322555,0 3.2754425,-0.532922 5.0561215,-1.333214 0.83547,-0.372883 1.637707,-0.82231 1.57737,-0.882709 -0.01661,-0.01636 -0.230832,-0.04929 -0.483743,-0.07676 -0.500146,-0.04928 -1.362947,-0.219378 -1.362947,-0.268662 0,-0.01636 0.380586,-0.166554 0.840729,-0.350871 2.288303,-1.155587 3.744958,-2.128427 5.360964,-3.568622 0.423039,-0.394525 0.784631,-0.781206 0.761684,-0.804096 -0.0055,-0.0109 -0.225375,0.03296 -0.478077,0.0877 -1.159649,0.252084 -3.138165,0.405597 -4.127315,0.323387 -0.505613,-0.04383 -1.214542,-0.208252 -1.582871,-0.361767 -0.225371,-0.09878 -0.197823,-0.0988 1.516844,-0.0988 1.58285,0 1.813698,-0.01635 2.434729,-0.126037 0.906738,-0.16442 1.511384,-0.356337 2.115806,-0.657915 0.983683,-0.488019 1.555296,-0.6874035 2.341149,-1.5975885 0.483749,-0.559114 0.61011,-0.740083 0.752859,-1.1018495 0.29685,-0.7566705 0.362616,-1.1602335 0.197792,-1.94962 C 21.746842,3.3387565 21.175219,2.7794001 20.147385,2.3956123 18.190254,1.6277335 16.491439,2.1019249 15.453917,3.3825667 15.146135,3.7609019 14.854753,3.8135959 14.810816,3.8574275 14.73387,3.934185 15.201008,3.0131204 15.772635,1.9496296 15.910128,1.7029987 16.008952,1.500001 15.99802,1.500001 Z"/>
 <path style="fill:#90725a" d="m 15.99802,1.000001 c -0.0053,0 -0.428234,0.1862234 -0.939523,0.4110434 -0.96182,0.4276193 -1.275064,0.6085947 -1.967575,1.1347825 -0.807928,0.6140605 -1.159653,1.1951869 -2.363241,3.8923976 -0.346255,0.7730285 -0.631964,1.398008 -0.642896,1.387102 -0.03847,-0.03838 0.115394,-0.904524 0.263819,-1.4802065 0.08241,-0.334503 0.269306,-0.9156525 0.406588,-1.304893 0.137493,-0.3837875 0.230835,-0.696255 0.203295,-0.696255 -0.115419,0 -0.857301,0.350867 -1.275035,0.597498 -0.9178805,0.553661 -2.0609265,1.5735285 -2.6434845,2.362915 -1.368412,1.863993 -1.983989,3.442988 -2.352319,6.030724 L 4.533751,14.404232 4.528286,13.899879 C 4.517356,12.918598 4.627328,12.046762 4.9075685,10.807736 5.0614595,10.155296 5.18231,9.601664 5.18231,9.579644 c 0,-0.02202 -0.170265,0.142604 -0.3847035,0.367214 -0.6592931,0.691029 -1.3635,1.754721 -1.6164113,2.681265 -0.1154183,0.433072 -0.192354,1.42003 -0.1318067,1.78725 0.027541,0.169873 0.043945,0.317919 0.033014,0.334487 -0.010933,0.0109 -0.048671,-0.04383 -0.2025623,-0.120589 -0.1538911,-0.08221 -0.2802432,-0.126057 -0.2802432,-0.104245 0,0.02747 0.076942,0.301598 0.16482,0.619533 0.087878,0.317936 0.16482,0.575662 0.16482,0.581114 0,0 -0.1255497,-0.02745 -0.4057913,-0.07127 -0.2747755,-0.03838 -0.5110798,-0.06043 -0.522012,-0.04932 -0.016399,0.01636 0.1099588,0.191895 0.2747821,0.400147 C 4,17.5 3.161096,17.151538 4.5945175,17.43523 c 0.01093,0.01656 0.24178,0.08221 0.51109,0.15897 0.2693095,0.0713 0.6649395,0.191865 0.8737015,0.268621 L 6.3640535,18 6.0617195,17.731337 5.7596315,17.462674 7.133501,17.457224 8.5073705,17.451774 7.737923,17.144731 C 7.151544,16.959559 6.714182,16.906914 6.251013,16.554436 6.0566375,16.381183 6.248063,16.39011 6.9905665,16.39011 c 1.6322555,0 3.2754425,-0.532922 5.0561215,-1.333214 0.83547,-0.372883 1.637707,-0.82231 1.57737,-0.882709 -0.01661,-0.01636 -0.230832,-0.04929 -0.483743,-0.07676 -0.500146,-0.04928 -1.362947,-0.219378 -1.362947,-0.268662 0,-0.01636 0.380586,-0.166554 0.840729,-0.350871 2.288303,-1.155587 3.744958,-2.128427 5.360964,-3.568622 0.423039,-0.394525 0.784631,-0.781206 0.761684,-0.804096 -0.0055,-0.0109 -0.225375,0.03296 -0.478077,0.0877 -1.159649,0.252084 -3.138165,0.405597 -4.127315,0.323387 -0.505613,-0.04383 -1.214542,-0.208252 -1.582871,-0.361767 -0.225371,-0.09878 -0.197823,-0.0988 1.516844,-0.0988 1.58285,0 1.813698,-0.01635 2.434729,-0.126037 0.906738,-0.16442 1.511384,-0.356337 2.115806,-0.657915 0.983683,-0.488019 1.555296,-0.6874035 2.341149,-1.5975885 0.483749,-0.559114 0.61011,-0.740083 0.752859,-1.1018495 0.29685,-0.7566705 0.362616,-1.1602335 0.197792,-1.9496202 C 21.746842,2.8387565 21.175219,2.2794001 20.147385,1.8956123 18.190254,1.1277335 16.491439,1.6019249 15.453917,2.8825668 15.146135,3.2609019 14.854753,3.3135959 14.810816,3.3574275 14.73387,3.434185 15.201008,2.5131205 15.772635,1.4496296 15.910128,1.2029987 16.008952,1.000001 15.99802,1.000001 Z"/>
 <path style="opacity:0.2" d="M 19.813476,3.3906249 C 16.510781,3.9513916 13.320035,6.318772 10.19043,9.530274 7.0608235,12.741775 3.9901716,16.822288 1,20.909179 V 21.5 H 1.8066406 C 7.050958,14.060298 12.752504,5.6916945 19.813476,3.3906249 Z"/>
 <path style="fill:#f4f4f7" d="M 19.813476,2.8906249 C 16.510781,3.4513916 13.320035,5.818772 10.19043,9.030274 7.0608235,12.241775 3.9901716,16.322288 1,20.409179 V 21 H 1.8066406 C 7.050958,13.560298 12.752504,5.1916945 19.813476,2.8906249 Z"/>
 <path style="opacity:0.1;fill:#f4f4f7" d="m 15.998047,1 c -0.0053,0 -0.428164,0.1863128 -0.939453,0.4111328 -0.96182,0.4276193 -1.275263,0.6085779 -1.967773,1.1347657 -0.807929,0.6140605 -1.159694,1.1953674 -2.363282,3.892578 -0.292604,0.653252 -0.46612,1.024467 -0.542968,1.171875 -0.07138,0.372401 -0.122454,0.6920535 -0.09961,0.714844 0.01093,0.010905 0.296323,-0.6136905 0.642578,-1.386719 1.203588,-2.6972105 1.555353,-3.2785175 2.363282,-3.8925781 0.69251,-0.5261878 1.005953,-0.7071463 1.967773,-1.1347656 0.333164,-0.1464965 0.445275,-0.1947035 0.612304,-0.2675781 0.03899,-0.073046 0.06138,-0.119586 0.101563,-0.194336 C 15.909953,1.2025879 16.008979,1 15.998047,1 Z m 2.402343,0.5263672 c -1.207477,-0.023462 -2.232992,0.476004 -2.946289,1.3564453 -0.116686,0.1434342 -0.22679,0.2297889 -0.326172,0.296875 -0.217142,0.4255319 -0.360067,0.7203153 -0.317382,0.6777344 0.04394,-0.043832 0.335772,-0.096274 0.643554,-0.4746094 1.037522,-1.2806419 2.736228,-1.7551835 4.69336,-0.9873047 1.027833,0.3837879 1.599829,0.9436126 1.764648,1.7275392 0.03795,0.1817195 0.05974,0.339416 0.07324,0.4892575 0.03344,-0.2951025 0.0094,-0.5932475 -0.07324,-0.9892576 C 21.74729,2.8391206 21.175294,2.2792957 20.147461,1.8955078 19.535857,1.6555457 18.949244,1.5370316 18.40039,1.5263672 Z M 10.958008,4.34375 c -0.115419,0 -0.85668,0.351025 -1.274414,0.597656 C 8.7657135,5.495067 7.622597,6.515301 7.040039,7.3046875 5.671627,9.168681 5.05583,10.747225 4.6875,13.334961 l -0.1533205,1.069336 -0.00195,-0.179687 c -2.34e-4,0.05865 -0.00455,0.115462 -0.0039,0.174804 l 0.00586,0.504883 L 4.68751,13.834961 C 5.05584,11.247225 5.671637,9.668681 7.040049,7.8046875 7.622607,7.015301 8.7657235,5.995067 9.683604,5.441406 10.016354,5.2449495 10.54106,4.990315 10.804698,4.8916015 10.908647,4.5886625 10.981403,4.34375 10.958018,4.34375 Z m 7.783203,4.761719 c -0.0055,-0.0109 -0.225814,0.03218 -0.478516,0.08691 -0.539087,0.117187 -1.257397,0.209703 -1.96875,0.270508 -0.481868,0.07661 -0.839616,0.09277 -2.224609,0.09277 -1.714667,0 -1.741972,-1.44e-4 -1.516601,0.09863 0.368329,0.153515 1.077394,0.318475 1.583007,0.362305 0.969995,0.08062 2.882176,-0.06812 4.049805,-0.311524 0.315275,-0.307574 0.574289,-0.58103 0.555664,-0.599609 z M 5.182617,9.580078 c 0,-0.02202 -0.170327,0.142577 -0.3847655,0.367187 -0.659293,0.691029 -1.3632996,1.754121 -1.6162109,2.680664 -0.1027269,0.385452 -0.169646,1.187531 -0.1416015,1.623047 0.0199,-0.406645 0.071997,-0.861876 0.1416015,-1.123047 C 3.4345519,12.201386 4.1385585,11.138294 4.7978515,10.447265 4.932918,10.305793 4.97153,10.278048 5.040039,10.21582 5.092669,9.979365 5.182617,9.591482 5.182617,9.580078 Z m 7.367188,4.425782 c -0.409091,0.163657 -0.772461,0.30821 -0.772461,0.323242 0,0.0458 0.733488,0.189442 1.240234,0.25 0.377176,-0.203087 0.641093,-0.37059 0.606446,-0.405274 -0.01661,-0.01636 -0.230487,-0.0487 -0.483399,-0.07617 -0.170001,-0.01675 -0.385145,-0.05662 -0.59082,-0.0918 z m -9.9501956,0.519531 c 0,0.02401 0.071057,0.275628 0.1445312,0.541015 0.04229,0.01807 0.083009,0.03433 0.1357422,0.0625 0.1538913,0.07676 0.1912159,0.131999 0.2021484,0.121094 0.010932,-0.01657 -0.00469,-0.165088 -0.032227,-0.334961 -0.00777,-0.0471 -0.00729,-0.126392 -0.010742,-0.191406 -0.020823,-0.01193 -0.03821,-0.03439 -0.1591797,-0.09473 -0.1538913,-0.08221 -0.2802736,-0.125327 -0.2802736,-0.103515 z m -0.5986329,1.080078 c -0.016399,0.01636 0.1105674,0.191162 0.2753907,0.399414 0.074421,0.06453 0.088064,0.08276 0.1533203,0.140625 0.045749,0.0057 0.044443,0.0019 0.09375,0.0088 0.2802416,0.04382 0.40625,0.07129 0.40625,0.07129 0,-0.005 -0.072207,-0.250182 -0.1494141,-0.526367 C 2.7193909,15.6874 2.7005921,15.682005 2.5234375,15.6543 2.248662,15.61592 2.0119087,15.59436 2.0009765,15.605469 Z m 4.897461,1.286132 c -0.630131,-3.39e-4 -0.8294585,8.5e-4 -0.647461,0.163086 0.276513,0.21043 0.5552705,0.313645 0.850586,0.402344 h 0.032225 l 1.3740235,-0.0049 -0.7695315,-0.307617 c -0.314,-0.09914 -0.584457,-0.163368 -0.839842,-0.252913 z M 6.253906,17.960937 6.364258,18 6.319338,17.960935 Z"/>
</svg>

<svg xmlns="http://www.w3.org/2000/svg" width="22" height="22" xml:space="preserve"><path style="opacity:.2" d="M15.998 1.5c-.005 0-.428.186-.94.411-.961.428-1.275.609-1.967 1.135-.808.614-1.16 1.195-2.363 3.892-.347.773-.632 1.398-.643 1.387-.039-.038.115-.904.264-1.48.082-.334.269-.916.406-1.305.138-.384.231-.696.203-.696-.115 0-.857.35-1.275.597-.917.554-2.06 1.574-2.643 2.363-1.368 1.864-1.984 3.443-2.352 6.031l-.154 1.07-.006-.505c-.01-.981.1-1.853.38-3.092.153-.653.274-1.206.274-1.228 0-.022-.17.142-.384.367-.66.69-1.364 1.755-1.617 2.681-.115.433-.192 1.42-.132 1.787.028.17.044.318.033.335-.01.01-.048-.044-.202-.12-.154-.083-.28-.127-.28-.105 0 .027.077.302.164.62.088.317.165.575.165.58 0 0-.125-.027-.406-.07-.274-.039-.51-.061-.522-.05-.016.016.11.192.275.4C4 18 3.161 17.652 4.595 17.935c.01.017.241.082.51.16.27.07.666.191.874.268l.385.137-.302-.269-.302-.268 1.374-.006 1.373-.005-.77-.307c-.585-.185-1.023-.238-1.486-.59-.194-.174-.003-.165.74-.165 1.632 0 3.275-.533 5.056-1.333.835-.373 1.637-.822 1.577-.883-.017-.016-.23-.05-.484-.077-.5-.049-1.363-.219-1.363-.268 0-.017.381-.167.841-.351 2.288-1.156 3.745-2.129 5.361-3.569.423-.394.785-.78.762-.804-.006-.01-.226.033-.478.088-1.16.252-3.138.405-4.128.323-.505-.044-1.214-.208-1.583-.362-.225-.098-.197-.098 1.517-.098 1.583 0 1.814-.017 2.435-.126.907-.165 1.511-.357 2.116-.658.984-.488 1.555-.688 2.341-1.598.484-.559.61-.74.753-1.102.297-.756.362-1.16.198-1.95-.165-.783-.737-1.343-1.765-1.726-1.957-.768-3.656-.294-4.693.987-.308.378-.6.43-.643.474-.077.077.39-.844.962-1.907.137-.247.236-.45.225-.45z"/><path style="fill:#90725a" d="M15.998 1c-.005 0-.428.186-.94.411-.961.428-1.275.609-1.967 1.135-.808.614-1.16 1.195-2.363 3.892-.347.773-.632 1.398-.643 1.387-.039-.038.115-.904.264-1.48.082-.334.269-.916.406-1.305.138-.384.231-.696.203-.696-.115 0-.857.35-1.275.597-.917.554-2.06 1.574-2.643 2.363-1.368 1.864-1.984 3.443-2.352 6.031l-.154 1.07-.006-.505c-.01-.981.1-1.853.38-3.092.153-.653.274-1.206.274-1.228 0-.022-.17.142-.384.367-.66.69-1.364 1.755-1.617 2.681-.115.433-.192 1.42-.132 1.787.028.17.044.318.033.335-.01.01-.048-.044-.202-.12-.154-.083-.28-.127-.28-.105 0 .027.077.302.164.62.088.317.165.575.165.58 0 0-.125-.027-.406-.07-.274-.039-.51-.061-.522-.05-.016.016.11.192.275.4 1.724 1.495.885 1.147 2.319 1.43.01.017.241.082.51.16.27.07.666.191.874.268l.385.137-.302-.269-.302-.268 1.374-.006 1.373-.005-.77-.307c-.585-.185-1.023-.238-1.486-.59-.194-.174-.003-.165.74-.165 1.632 0 3.275-.533 5.056-1.333.835-.373 1.637-.822 1.577-.883-.017-.016-.23-.05-.484-.077-.5-.049-1.363-.219-1.363-.268 0-.017.381-.167.841-.351 2.288-1.156 3.745-2.129 5.361-3.569.423-.394.785-.78.762-.804-.006-.01-.226.033-.478.088-1.16.252-3.138.405-4.128.323-.505-.044-1.214-.208-1.583-.362-.225-.098-.197-.098 1.517-.098 1.583 0 1.814-.017 2.435-.126.907-.165 1.511-.357 2.116-.658.984-.488 1.555-.688 2.341-1.598.484-.559.61-.74.753-1.102.297-.756.362-1.16.198-1.95-.165-.783-.737-1.343-1.765-1.726-1.957-.768-3.656-.294-4.693.987-.308.378-.6.43-.643.474-.077.077.39-.844.962-1.907.137-.247.236-.45.225-.45z"/><path style="opacity:.2" d="M19.813 3.39c-3.302.561-6.493 2.929-9.623 6.14-3.13 3.212-6.2 7.292-9.19 11.38v.59h.807C7.05 14.06 12.753 5.692 19.813 3.39z"/><path style="fill:#f4f4f7" d="M19.813 2.89c-3.302.561-6.493 2.929-9.623 6.14-3.13 3.212-6.2 7.292-9.19 11.38V21h.807C7.05 13.56 12.753 5.192 19.813 2.89z"/><path style="opacity:.1;fill:#f4f4f7" d="M15.998 1c-.005 0-.428.186-.94.411-.961.428-1.275.609-1.967 1.135-.808.614-1.16 1.195-2.363 3.892a29.566 29.566 0 0 1-.543 1.172c-.072.373-.123.692-.1.715.01.011.296-.613.643-1.387 1.203-2.697 1.555-3.278 2.363-3.892.692-.526 1.006-.707 1.968-1.135l.612-.267c.039-.073.061-.12.101-.195.138-.246.237-.449.226-.449zm2.402.526c-1.207-.023-2.233.476-2.946 1.357-.117.143-.227.23-.326.297-.217.425-.36.72-.317.677.043-.043.335-.096.643-.474 1.038-1.28 2.736-1.755 4.693-.987 1.028.383 1.6.943 1.765 1.727.038.182.06.34.073.49.034-.296.01-.594-.073-.99-.165-.784-.737-1.344-1.765-1.727a5.058 5.058 0 0 0-1.747-.37zm-7.442 2.818c-.115 0-.857.35-1.274.597-.918.554-2.061 1.574-2.644 2.364-1.368 1.864-1.984 3.442-2.353 6.03l-.153 1.07-.002-.18c0 .058-.004.115-.004.174l.006.505.154-1.069c.368-2.588.984-4.166 2.352-6.03.583-.79 1.726-1.81 2.644-2.364a9.04 9.04 0 0 1 1.12-.55c.105-.302.177-.547.154-.547zm7.783 4.761c-.005-.01-.226.033-.478.087-.54.118-1.258.21-1.97.27-.48.077-.839.094-2.224.094-1.714 0-1.742 0-1.516.098.368.154 1.077.319 1.583.363.97.08 2.882-.069 4.05-.312.315-.308.574-.581.555-.6zM5.183 9.58c0-.022-.17.143-.385.367-.66.691-1.363 1.754-1.616 2.68-.103.386-.17 1.188-.142 1.624.02-.407.072-.862.142-1.123.253-.927.957-1.99 1.616-2.68.135-.142.174-.17.242-.232.053-.237.143-.625.143-.636zm7.367 4.426c-.41.164-.773.308-.773.323 0 .046.734.19 1.24.25.378-.203.642-.37.607-.405-.017-.017-.23-.049-.483-.076-.17-.017-.386-.057-.591-.092zm-9.95.52c0 .023.07.275.144.54.042.018.083.035.136.063.154.077.191.132.202.121.011-.017-.005-.165-.032-.335-.008-.047-.007-.126-.01-.191-.022-.012-.04-.035-.16-.095-.154-.082-.28-.125-.28-.104zM2 15.605c-.016.016.11.19.275.399.075.064.088.083.154.14.045.006.044.002.093.01.28.043.407.07.407.07 0-.004-.073-.25-.15-.526-.06-.012-.08-.017-.257-.045-.274-.038-.511-.06-.522-.049zm4.897 1.286c-.63 0-.829 0-.647.163.276.21.555.313.85.402h.033l1.374-.005-.77-.307c-.314-.1-.584-.164-.84-.253zm-.644 1.069.11.039-.045-.04z"/></svg>
